X:110
T:The Sailor on the Rock
C:Trad.
D:"Cooley", track 17
M:4/4
R:reel
K:D
FA|defd ~BAFB|AFED FA ~A2|defd ~B3d|ABdf edBA|
dfed BAFB|AFED FA ~A2|defd ~B3d|ABdf eddd|
d3e B3d|AFED FA ~A2|defd ~B3d|ABdf edBA|
dfed BAFB|AFED FA ~A2|defd ~B3d|ABdf eddd|
faaa feda|g3a bgeg|fa(3a_aa fedB|ABdf edde|
faaa feda|g2ga bgeg|fded (3Bcd AF|ABdf edBA|
f~a3 fedA|gfga bgeg|faag fedB|ABdf eddd|
faaa fedf|g3a bgeg|fded B/c/B2F|ABdf edBA|
